X: 4
T: Zorros m\"arke
T: Koputas polkka
T: Tupsun juuren
R: polka
O: Trad Finland
Z: John Chambers <jc@trillian.mit.edu>
M: 2/4
L: 1/8
K: Am
|: "Am"ea a>b | ag e>f | "G"gg/a/ gf | "E7"e2 e2 :|
|: "Am".e[ec] [e-B][eA] | "".e[ec] [e-B][eA] | "".e[eA] .e[eA] | "".e[ec] [e-B][eA] \
| "E7"BB/d/ cB | "Am"A2 A2 :|
